X: 1
T: the Banshee
T: McMahon's Reel
R: reel
C: James McMahon (Co. Fermanagh fiddle/flute player, b. ~1900)
S: http://tunearch.org/wiki/McMahon%27s_Reel
Z: transcribed by henrik.norbeck@mailbox.swipnet.se
M: C|
L: 1/8
K: G
|:\
~G3D EDB,D | G2{F}GB d2Bd | eged BAGA | BAGE EDDE |
~G3D EDB,D | G2{F}GB d2Bd | eged BAGA | BAGE EDD2 :|
|:\
eaag efge | dBBA B3z | eB~B2 gBfB | eBBA B3z |
eaag efge | dBBA B3z | eged BAGA | BAGE ED D2 :|
